src/assets/images/next.svg

<svg fill="none" height="22" viewBox="0 0 18 22" width="18" xmlns="http://www.w3.org/2000/svg"><path d="m15.3334 11.8893-13.63065 9.0867c-.10039.0668-.21703.1051-.33748.1109s-.24021-.0213-.34652-.0782c-.106314-.0569-.195196-.1416-.257183-.245-.061987-.1035-.094757-.2218-.094819-.3424v-18.84262c.000062-.12059.032832-.23891.094819-.34235.061987-.10343.150869-.18812.257183-.245041.10631-.056918.22607-.083935.34652-.078173s.23709.044088.33748.110894l13.63065 9.08669v-8.44402c0-.35363.1405-.692763.3905-.942812.2501-.250048.5892-.390524.9428-.390524.3537 0 .6928.140476.9429.390524.25.250049.3905.589182.3905.942812v18.66662c0 .3537-.1405.6928-.3905.9429-.2501.25-.5892.3905-.9429.3905-.3536 0-.6927-.1405-.9428-.3905-.25-.2501-.3905-.5892-.3905-.9429z" fill="#fff"/></svg>

<svg width="18" height="22" viewBox="0 0 18 22" fill="none" xmlns="http://www.w3.org/2000/svg">
<path d="M15.3334 11.8893L1.70275 20.976C1.60236 21.0428 1.48572 21.0811 1.36527 21.0869C1.24482 21.0927 1.12506 21.0656 1.01875 21.0087C0.912436 20.9518 0.823554 20.8671 0.761567 20.7637C0.69958 20.6602 0.66681 20.5419 0.666748 20.4213L0.666748 1.57868C0.66681 1.45809 0.69958 1.33977 0.761567 1.23633C0.823554 1.1329 0.912436 1.04821 1.01875 0.991289C1.12506 0.934371 1.24482 0.907354 1.36527 0.913116C1.48572 0.918878 1.60236 0.957204 1.70275 1.02401L15.3334 10.1107L15.3334 1.66668C15.3334 1.31305 15.4739 0.973917 15.7239 0.723868C15.974 0.47382 16.3131 0.333344 16.6667 0.333344C17.0204 0.333344 17.3595 0.47382 17.6096 0.723868C17.8596 0.973917 18.0001 1.31305 18.0001 1.66668L18.0001 20.3333C18.0001 20.687 17.8596 21.0261 17.6096 21.2762C17.3595 21.5262 17.0204 21.6667 16.6667 21.6667C16.3131 21.6667 15.974 21.5262 15.7239 21.2762C15.4739 21.0261 15.3334 20.687 15.3334 20.3333L15.3334 11.8893Z" fill="white"/>
</svg>
